X: 4163
M: C|
L: 1/8
K: D
|:\
d2e2 dcAc | =cBcG EFGE |\
efge e=cgc |
e=cgc dccg |\
[1 fgaf gddg | fdag fddg :|\
[2 abaf gedB | ABAG (FD)D2 |]


